X:1
T:Title
%%score { ( 1 3 ) | ( 2 4 ) }
L:1/8
M:6/8
K:Eb
V:1 treble nm="Grand Piano"
V:3 treble 
V:2 bass 
V:4 bass 
V:1
 z3 z2[Q:1/4=81] [GB] | [Ge]>[GB][GB] [EG][FA][GB] | [Ac]3 [GB]2 G | E>EE [CE][CE][Ec] | %4
 [EB]3- [EB]2 [GB] | [Fd]>[Ac][GB] [FA][GB][FA] |[M:5/8] [EG]3 [Ec]2 |[M:1/8] [EAc] | %8
[M:3/4] [EGB]>[GB] [GB][FA] [DA][B,D] |[M:5/8] [B,E]-[B,E]- [B,E]3 |[M:1/8] [GB] | %11
[M:3/4] [GB]>[GB] [GB][DAB] [Ac][Ad] | [Ge]3 [GB]2 [Ge] | [Fd][DF] [EG][FA] [Ac][GB] | %14
 [EG]4- [EG][GB] | [EG]>[FA] [GB][EG]- [EG]/[FA]/[GB] | c3 e2 d/c/ | [GB][Ge] [EG][DF] [Dc][DB] | %18
[M:5/8] E-E- E3 |] %19
V:2
 z3 z2 [E,B,] | [E,B,]>[E,B,][E,B,] [E,B,][E,B,][E,E] | [E,E]3 [E,E]2 [E,B,E] | %3
 [A,C]>[A,C][A,C] [A,,A,][A,,A,][A,,A,] | [E,G,]3- [E,G,]2 [E,B,] | %5
 [B,,B,]>[B,,B,][B,,B,] [B,,B,][B,,B,][B,,B,] |[M:5/8] [E,B,]3 [A,,A,]2 |[M:1/8] A,, | %8
[M:3/4] B,,>[B,,B,] [B,,B,][B,,B,] [B,,F,][B,,A,] |[M:5/8] [E,G,]-[E,G,]- [E,G,]3 |[M:1/8] [E,B,] | %11
[M:3/4] [E,E]>[E,E] [E,E]B,, [B,,B,][B,,B,] | [E,B,]3 [E,E]2 [E,B,] | %13
 [B,,B,][B,,B,] [B,,B,][B,,B,] [B,,B,][B,,B,] | [E,B,]4- [E,B,][E,B,] | %15
 [E,B,]>[E,B,] [E,B,][E,B,]- [E,B,]/[E,B,]/[E,E] | [A,CA]3 [A,CA]2 [A,EA] | %17
 [E,E][E,B,] [E,B,][B,,B,] [B,,F,][B,,A,] |[M:5/8] [G,B,] z z z2 |] %19
V:3
 x6 | x6 | x6 | x6 | x6 | x6 |[M:5/8] x5 |[M:1/8] x |[M:3/4] x6 |[M:5/8] x5 |[M:1/8] x | %11
[M:3/4] x6 | x6 | x6 | x6 | x6 | x6 | x6 |[M:5/8] z B,C B,2 |] %19
V:4
 x6 | x6 | x6 | x6 | x6 | x6 |[M:5/8] x5 |[M:1/8] x |[M:3/4] x6 |[M:5/8] x5 |[M:1/8] x | %11
[M:3/4] x6 | x6 | x6 | x6 | x6 | x6 | x6 |[M:5/8] E,-[E,-G,][E,-A,] [E,G,]2 |] %19

